; generated by Slic3r 1.0.0RC2 on 2014-02-13 at 11:51:18

; layer_height = 0.25
; perimeters = 3
; top_solid_layers = 3
; bottom_solid_layers = 3
; fill_density = .5
; perimeter_speed = 40
; infill_speed = 60
; travel_speed = 150
; nozzle_diameter = 0.4
; filament_diameter = 1.7
; extrusion_multiplier = 1
; perimeters extrusion width = 0.40mm
; infill extrusion width = 0.53mm
; solid infill extrusion width = 0.53mm
; top infill extrusion width = 0.53mm
; support material extrusion width = 0.40mm
; first layer extrusion width = 0.50mm

G21 ; set units to millimeters
M190 S180 ; wait for bed temperature to be reached
M104 S220 ; set temperature
G28 ; home all axes
G1 Z5 F5000 ; lift nozzle
M109 S220 ; wait for temperature to be reached
G90 ; use absolute coordinates
G92 E0
M82 ; use absolute distances for extrusion
G1 F1800.000 E-1.00000
G92 E0
G1 Z0.250 F9000.000
G1 X55.805 Y44.000 F9000.000
G1 E1.00000 F1800.000
G1 X56.425 Y43.280 E1.05008 F720.000
G1 X57.145 Y42.660 E1.10016
G1 X57.795 Y42.180 E1.14275
G1 X58.455 Y41.750 E1.18427
G1 X59.165 Y41.400 E1.22599
G1 X59.865 Y41.110 E1.26593
G1 X60.675 Y40.840 E1.31093
G1 X61.525 Y40.670 E1.35662
G1 X62.305 Y40.570 E1.39806
G1 X63.125 Y40.520 E1.44136
G1 X129.115 Y40.520 E4.91952
G1 X129.935 Y40.570 E4.96282
G1 X130.715 Y40.670 E5.00426
G1 X131.555 Y40.840 E5.04944
G1 X132.355 Y41.110 E5.09394
G1 X133.085 Y41.410 E5.13554
G1 X133.845 Y41.780 E5.18009
G1 X134.535 Y42.240 E5.22380
G1 X135.155 Y42.710 E5.26481
G1 X135.825 Y43.290 E5.31151
G1 X136.405 Y43.960 E5.35822
G1 X136.875 Y44.580 E5.39923
G1 X137.335 Y45.270 E5.44294
G1 X137.705 Y46.030 E5.48749
G1 X138.005 Y46.760 E5.52909
G1 X138.265 Y47.510 E5.57093
G1 X147.375 Y80.790 E7.38956
G1 X147.545 Y81.640 E7.43524
G1 X147.605 Y82.500 E7.48068
G1 X147.605 Y97.500 E8.27129
G1 X147.545 Y98.360 E8.31673
G1 X147.375 Y99.210 E8.36242
G1 X138.265 Y132.480 E10.18054
G1 X138.005 Y133.230 E10.22238
G1 X137.705 Y133.960 E10.26398
G1 X137.335 Y134.720 E10.30853
G1 X136.875 Y135.410 E10.35224
G1 X136.405 Y136.030 E10.39324
G1 X135.805 Y136.720 E10.44144
G1 X135.115 Y137.310 E10.48929
G1 X134.485 Y137.780 E10.53072
G1 X133.825 Y138.220 E10.57253
G1 X133.105 Y138.570 E10.61472
G1 X132.385 Y138.870 E10.65583
G1 X131.615 Y139.140 E10.69884
G1 X130.815 Y139.300 E10.74184
G1 X130.045 Y139.410 E10.78284
G1 X129.125 Y139.480 E10.83147
G1 X63.115 Y139.480 E14.31067
G1 X62.195 Y139.410 E14.35931
G1 X61.425 Y139.300 E14.40030
G1 X60.625 Y139.140 E14.44330
G1 X59.855 Y138.870 E14.48631
G1 X59.135 Y138.570 E14.52742
G1 X58.415 Y138.220 E14.56962
G1 X57.755 Y137.780 E14.61143
G1 X57.125 Y137.310 E14.65285
G1 X56.405 Y136.690 E14.70293
G1 X55.785 Y135.970 E14.75301
G1 X55.305 Y135.320 E14.79560
G1 X54.855 Y134.630 E14.83902
G1 X39.045 Y106.280 E16.54992
G1 X38.715 Y105.580 E16.59071
G1 X38.095 Y104.070 E16.67675
G1 X37.825 Y103.270 E16.72125
G1 X37.665 Y102.440 E16.76580
G1 X37.455 Y100.820 E16.85190
G1 X37.395 Y99.990 E16.89576
G1 X37.395 Y79.990 E17.94991
G1 X37.455 Y79.120 E17.99587
G1 X37.675 Y77.490 E18.08256
G1 X37.835 Y76.690 E18.12556
G1 X38.095 Y75.910 E18.16890
G1 X38.705 Y74.420 E18.25376
G1 X39.045 Y73.710 E18.29525
G1 X54.865 Y45.340 E20.00733
G1 X55.335 Y44.630 E20.05221
G1 X55.762 Y44.058 E20.08985
G1 F1800.000 E19.08985
G92 E0
G1 X117.012 Y52.075 F9000.000
G1 E1.00000 F1800.000
G1 X117.034 Y51.904 E1.00907 F540.000
G1 X117.458 Y50.883 E1.06734
G1 X118.131 Y50.006 E1.12561
G1 X119.008 Y49.333 E1.18387
G1 X120.029 Y48.909 E1.24214
G1 X121.125 Y48.765 E1.30041
G1 X122.221 Y48.909 E1.35868
G1 X123.242 Y49.333 E1.41695
G1 X124.119 Y50.006 E1.47522
G1 X124.792 Y50.883 E1.53348
G1 X125.216 Y51.904 E1.59175
G1 X125.360 Y53.000 E1.65002
G1 X125.216 Y54.096 E1.70829
G1 X124.792 Y55.117 E1.76656
G1 X124.119 Y55.994 E1.82483
G1 X123.242 Y56.667 E1.88310
G1 X122.221 Y57.091 E1.94136
G1 X121.125 Y57.235 E1.99963
G1 X120.029 Y57.091 E2.05790
G1 X119.008 Y56.667 E2.11617
G1 X118.131 Y55.994 E2.17444
G1 X117.458 Y55.117 E2.23271
G1 X117.034 Y54.096 E2.29097
G1 X116.890 Y53.000 E2.34924
G1 X117.003 Y52.146 E2.39466
G1 X117.486 Y52.137 F9000.000
G1 X117.501 Y52.029 E2.40041 F540.000
G1 X117.876 Y51.124 E2.45203
G1 X118.472 Y50.347 E2.50366
G1 X119.249 Y49.751 E2.55529
G1 X120.154 Y49.376 E2.60692
G1 X121.017 Y49.262 E2.65280
G1 X121.125 Y49.248 E2.65854
G1 X122.096 Y49.376 E2.71017
G1 X123.001 Y49.751 E2.76180
G1 X123.778 Y50.347 E2.81343
G1 X124.374 Y51.124 E2.86505
G1 X124.749 Y52.029 E2.91668
G1 X124.877 Y53.000 E2.96831
G1 X124.749 Y53.971 E3.01993
G1 X124.374 Y54.876 E3.07156
G1 X123.778 Y55.653 E3.12319
G1 X123.001 Y56.249 E3.17482
G1 X122.096 Y56.624 E3.22644
G1 X121.125 Y56.752 E3.27807
G1 X120.154 Y56.624 E3.32970
G1 X119.249 Y56.249 E3.38132
G1 X118.472 Y55.653 E3.43295
G1 X117.876 Y54.876 E3.48458
G1 X117.501 Y53.971 E3.53621
G1 X117.373 Y53.000 E3.58783
G1 X117.477 Y52.208 E3.62993
G1 X117.400 Y52.071 F9000.000
G1 F1800.000 E2.62993
G92 E0
G1 X75.360 Y53.000 F9000.000
G1 E1.00000 F1800.000
G1 X75.216 Y54.096 E1.05827 F540.000
G1 X74.792 Y55.117 E1.11654
G1 X74.119 Y55.994 E1.17481
G1 X73.242 Y56.667 E1.23307
G1 X72.221 Y57.091 E1.29134
G1 X71.125 Y57.235 E1.34961
G1 X70.029 Y57.091 E1.40788
G1 X69.008 Y56.667 E1.46615
G1 X68.131 Y55.994 E1.52442
G1 X67.458 Y55.117 E1.58268
G1 X67.100 Y54.255 E1.63188
G1 X67.034 Y54.096 E1.64095
G1 X66.890 Y53.000 E1.69922
G1 X67.034 Y51.904 E1.75749
G1 X67.392 Y51.042 E1.80669
G1 X67.458 Y50.883 E1.81576
G1 X68.131 Y50.006 E1.87403
G1 X69.008 Y49.333 E1.93230
G1 X70.029 Y48.909 E1.99056
G1 X71.125 Y48.765 E2.04883
G1 X72.221 Y48.909 E2.10710
G1 X73.242 Y49.333 E2.16537
G1 X74.119 Y50.006 E2.22364
G1 X74.792 Y50.883 E2.28191
G1 X75.216 Y51.904 E2.34017
G1 X75.350 Y52.929 E2.39466
G1 X74.877 Y53.000 F9000.000
G1 X74.749 Y53.971 E2.44629 F540.000
G1 X74.374 Y54.876 E2.49791
G1 X73.778 Y55.653 E2.54954
G1 X73.001 Y56.249 E2.60117
G1 X72.096 Y56.624 E2.65279
G1 X71.125 Y56.752 E2.70442
G1 X70.154 Y56.624 E2.75605
G1 X69.249 Y56.249 E2.80768
G1 X68.472 Y55.653 E2.85930
G1 X67.876 Y54.876 E2.91093
G1 X67.542 Y54.072 E2.95681
G1 X67.501 Y53.971 E2.96256
G1 X67.373 Y53.000 E3.01419
G1 X67.501 Y52.029 E3.06581
G1 X67.834 Y51.225 E3.11169
G1 X67.876 Y51.124 E3.11744
G1 X68.472 Y50.347 E3.16907
G1 X69.249 Y49.751 E3.22069
G1 X70.154 Y49.376 E3.27232
G1 X71.125 Y49.248 E3.32395
G1 X72.096 Y49.376 E3.37558
G1 X73.001 Y49.751 E3.42720
G1 X73.778 Y50.347 E3.47883
G1 X74.374 Y51.124 E3.53046
G1 X74.749 Y52.029 E3.58209
G1 X74.868 Y52.929 E3.62993
G1 X75.281 Y53.257 F9000.000
G1 F1800.000 E2.62993
G92 E0
G1 X92.776 Y56.102 F9000.000
G1 E1.00000 F1800.000
G1 X93.122 Y55.266 E1.04771 F540.000
G1 X93.570 Y54.683 E1.08645
G1 X93.673 Y54.548 E1.09542
G1 X94.391 Y53.997 E1.14313
G1 X95.228 Y53.651 E1.19084
G1 X95.956 Y53.555 E1.22958
G1 X96.125 Y53.533 E1.23855
G1 X97.022 Y53.651 E1.28626
G1 X97.859 Y53.997 E1.33397
G1 X98.442 Y54.444 E1.37271
G1 X98.577 Y54.548 E1.38168
G1 X99.128 Y55.266 E1.42939
G1 X99.474 Y56.102 E1.47710
G1 X99.593 Y57.000 E1.52481
G1 X99.474 Y57.897 E1.57252
G1 X99.128 Y58.734 E1.62023
G1 X98.577 Y59.452 E1.66794
G1 X97.859 Y60.003 E1.71565
G1 X97.023 Y60.349 E1.76336
G1 X96.125 Y60.467 E1.81107
G1 X95.228 Y60.349 E1.85878
G1 X94.391 Y60.003 E1.90649
G1 X93.673 Y59.452 E1.95421
G1 X93.122 Y58.734 E2.00192
G1 X92.776 Y57.897 E2.04963
G1 X92.658 Y57.000 E2.09734
G1 X92.766 Y56.174 E2.14127
G1 X93.242 Y56.227 F9000.000
G1 X93.540 Y55.508 E2.18234 F540.000
G1 X93.949 Y54.974 E2.21776
G1 X94.014 Y54.889 E2.22341
G1 X94.633 Y54.415 E2.26447
G1 X95.352 Y54.117 E2.30554
G1 X96.019 Y54.029 E2.34096
G1 X96.125 Y54.015 E2.34661
G1 X96.898 Y54.117 E2.38768
G1 X97.617 Y54.415 E2.42875
G1 X98.151 Y54.824 E2.46417
G1 X98.236 Y54.889 E2.46982
G1 X98.710 Y55.508 E2.51089
G1 X99.008 Y56.227 E2.55196
G1 X99.110 Y57.000 E2.59303
G1 X99.008 Y57.772 E2.63409
G1 X98.710 Y58.492 E2.67516
G1 X98.236 Y59.111 E2.71623
G1 X97.617 Y59.585 E2.75730
G1 X96.898 Y59.883 E2.79837
G1 X96.125 Y59.985 E2.83944
G1 X95.352 Y59.883 E2.88051
G1 X94.633 Y59.585 E2.92158
G1 X94.014 Y59.111 E2.96265
G1 X93.540 Y58.492 E3.00372
G1 X93.242 Y57.773 E3.04479
G1 X93.140 Y57.000 E3.08586
G1 X93.233 Y56.299 E3.12315
G1 X93.708 Y56.352 F9000.000
G1 X93.958 Y55.749 E3.15758 F540.000
G1 X94.329 Y55.266 E3.18967
G1 X94.874 Y54.833 E3.22636
G1 X95.477 Y54.583 E3.26079
G1 X96.125 Y54.498 E3.29521
G1 X96.773 Y54.583 E3.32964
G1 X97.376 Y54.833 E3.36407
G1 X97.859 Y55.204 E3.39617
G1 X98.292 Y55.749 E3.43285
G1 X98.542 Y56.352 E3.46728
G1 X98.627 Y57.000 E3.50171
G1 X98.542 Y57.648 E3.53613
G1 X98.292 Y58.251 E3.57056
G1 X97.894 Y58.769 E3.60499
G1 X97.376 Y59.167 E3.63942
G1 X96.773 Y59.417 E3.67385
G1 X96.125 Y59.502 E3.70827
G1 X95.477 Y59.417 E3.74270
G1 X94.874 Y59.167 E3.77713
G1 X94.356 Y58.769 E3.81156
G1 X93.958 Y58.251 E3.84599
G1 X93.708 Y57.648 E3.88042
G1 X93.623 Y57.000 E3.91484
G1 X93.699 Y56.424 E3.94549
G1 X93.385 Y56.000 F9000.000
G1 F1800.000 E2.94549
G92 E0
G1 X75.592 Y63.562 F9000.000
G1 E1.00000 F1800.000
G1 X75.682 Y63.779 E1.01239 F540.000
G1 X75.842 Y65.000 E1.07730
G1 X75.682 Y66.221 E1.14221
G1 X75.210 Y67.359 E1.20712
G1 X74.461 Y68.336 E1.27203
G1 X73.484 Y69.085 E1.33694
G1 X72.346 Y69.557 E1.40185
G1 X71.125 Y69.717 E1.46676
G1 X69.904 Y69.557 E1.53167
G1 X68.766 Y69.085 E1.59658
G1 X67.789 Y68.336 E1.66149
G1 X67.040 Y67.359 E1.72640
G1 X66.568 Y66.221 E1.79131
G1 X66.251 Y63.812 E1.91937
G1 X66.555 Y63.812 E1.93537
G1 X67.040 Y62.641 E2.00216
G1 X67.789 Y61.664 E2.06707
G1 X68.766 Y60.915 E2.13198
G1 X69.904 Y60.443 E2.19689
G1 X71.125 Y60.283 E2.26180
G1 X72.113 Y60.413 E2.31432
G1 X72.346 Y60.443 E2.32671
G1 X73.484 Y60.915 E2.39162
G1 X74.461 Y61.664 E2.45653
G1 X75.210 Y62.641 E2.52144
G1 X75.564 Y63.496 E2.57017
G1 X75.150 Y63.745 F9000.000
G1 X75.216 Y63.904 E2.57924 F540.000
G1 X75.360 Y65.000 E2.63751
G1 X75.216 Y66.096 E2.69578
G1 X74.792 Y67.117 E2.75405
G1 X74.119 Y67.994 E2.81232
G1 X73.242 Y68.667 E2.87058
G1 X72.221 Y69.091 E2.92885
G1 X71.125 Y69.235 E2.98712
G1 X70.029 Y69.091 E3.04539
G1 X69.008 Y68.667 E3.10366
G1 X68.131 Y67.994 E3.16193
G1 X67.458 Y67.117 E3.22019
G1 X67.034 Y66.096 E3.27847
G1 X66.797 Y64.291 E3.37445
G1 X66.984 Y64.291 E3.38429
G1 X67.034 Y63.904 E3.40485
G1 X67.458 Y62.883 E3.46311
G1 X68.131 Y62.006 E3.52138
G1 X69.008 Y61.333 E3.57965
G1 X70.029 Y60.909 E3.63792
G1 X71.125 Y60.765 E3.69619
G1 X72.050 Y60.887 E3.74539
G1 X72.221 Y60.909 E3.75446
G1 X73.242 Y61.333 E3.81273
G1 X74.119 Y62.006 E3.87099
G1 X74.792 Y62.883 E3.92926
G1 X75.122 Y63.679 E3.97468
G1 X74.708 Y63.928 F9000.000
G1 X74.749 Y64.029 E3.98043 F540.000
G1 X74.877 Y65.000 E4.03205
G1 X74.749 Y65.971 E4.08368
G1 X74.374 Y66.876 E4.13531
G1 X73.778 Y67.653 E4.18694
G1 X73.001 Y68.249 E4.23856
G1 X72.096 Y68.624 E4.29019
G1 X71.125 Y68.752 E4.34182
G1 X70.154 Y68.624 E4.39344
G1 X69.249 Y68.249 E4.44507
G1 X68.472 Y67.653 E4.49670
G1 X67.876 Y66.876 E4.54833
G1 X67.501 Y65.971 E4.59995
G1 X67.342 Y64.769 E4.66386
G1 X67.403 Y64.769 E4.66706
G1 X67.501 Y64.029 E4.70641
G1 X67.876 Y63.124 E4.75804
G1 X68.472 Y62.347 E4.80967
G1 X69.249 Y61.751 E4.86129
G1 X70.154 Y61.376 E4.91292
G1 X71.125 Y61.248 E4.96455
G1 X71.988 Y61.361 E5.01043
G1 X72.096 Y61.376 E5.01618
G1 X73.001 Y61.751 E5.06780
G1 X73.778 Y62.347 E5.11943
G1 X74.374 Y63.124 E5.17106
G1 X74.680 Y63.862 E5.21315
G1 X74.816 Y63.942 F9000.000
G1 F1800.000 E4.21315
G92 E0
G1 X116.408 Y65.000 F9000.000
G1 E1.00000 F1800.000
G1 X116.568 Y63.779 E1.06491 F540.000
G1 X117.040 Y62.641 E1.12982
G1 X117.789 Y61.664 E1.19473
G1 X118.766 Y60.915 E1.25964
G1 X119.687 Y60.533 E1.31216
G1 X119.904 Y60.443 E1.32455
G1 X121.125 Y60.283 E1.38946
G1 X122.346 Y60.443 E1.45437
G1 X123.484 Y60.915 E1.51928
G1 X124.461 Y61.664 E1.58419
G1 X125.210 Y62.641 E1.64910
G1 X125.682 Y63.779 E1.71401
G1 X125.842 Y65.000 E1.77891
G1 X125.682 Y66.221 E1.84382
G1 X125.210 Y67.359 E1.90873
G1 X124.461 Y68.336 E1.97364
G1 X123.484 Y69.085 E2.03855
G1 X122.346 Y69.557 E2.10346
G1 X121.125 Y69.717 E2.16837
G1 X119.904 Y69.557 E2.23328
G1 X118.766 Y69.085 E2.29819
G1 X117.789 Y68.336 E2.36310
G1 X117.040 Y67.359 E2.42801
G1 X116.568 Y66.221 E2.49292
G1 X116.417 Y65.071 E2.55405
G1 X116.890 Y65.000 F9000.000
G1 X117.034 Y63.904 E2.61232 F540.000
G1 X117.458 Y62.883 E2.67058
G1 X118.131 Y62.006 E2.72885
G1 X119.008 Y61.333 E2.78712
G1 X119.870 Y60.975 E2.83632
G1 X120.029 Y60.909 E2.84539
G1 X121.125 Y60.765 E2.90366
G1 X122.221 Y60.909 E2.96193
G1 X123.242 Y61.333 E3.02019
G1 X124.119 Y62.006 E3.07846
G1 X124.792 Y62.883 E3.13673
G1 X125.216 Y63.904 E3.19500
G1 X125.360 Y65.000 E3.25327
G1 X125.216 Y66.096 E3.31154
G1 X124.792 Y67.117 E3.36980
G1 X124.119 Y67.994 E3.42807
G1 X123.242 Y68.667 E3.48634
G1 X122.221 Y69.091 E3.54461
G1 X121.125 Y69.235 E3.60288
G1 X120.029 Y69.091 E3.66115
G1 X119.008 Y68.667 E3.71942
G1 X118.131 Y67.994 E3.77768
G1 X117.458 Y67.117 E3.83595
G1 X117.034 Y66.096 E3.89422
G1 X116.900 Y65.071 E3.94871
G1 X117.373 Y65.000 F9000.000
G1 X117.501 Y64.029 E4.00033 F540.000
G1 X117.876 Y63.124 E4.05196
G1 X118.472 Y62.347 E4.10359
G1 X119.249 Y61.751 E4.15521
G1 X120.053 Y61.417 E4.20109
G1 X120.154 Y61.376 E4.20684
G1 X121.125 Y61.248 E4.25847
G1 X122.096 Y61.376 E4.31010
G1 X123.001 Y61.751 E4.36172
G1 X123.778 Y62.347 E4.41335
G1 X124.374 Y63.124 E4.46498
G1 X124.749 Y64.029 E4.51661
G1 X124.877 Y65.000 E4.56823
G1 X124.749 Y65.971 E4.61986
G1 X124.374 Y66.876 E4.67149
G1 X123.778 Y67.653 E4.72311
G1 X123.001 Y68.249 E4.77474
G1 X122.096 Y68.624 E4.82637
G1 X121.125 Y68.752 E4.87800
G1 X120.154 Y68.624 E4.92962
G1 X119.249 Y68.249 E4.98125
G1 X118.472 Y67.653 E5.03288
G1 X117.876 Y66.876 E5.08451
G1 X117.501 Y65.971 E5.13613
G1 X117.382 Y65.071 E5.18398
G1 X116.969 Y64.743 F9000.000
G1 F1800.000 E4.18398
G92 E0
G1 X52.991 Y79.232 F9000.000
G1 E1.00000 F1800.000
G1 X53.092 Y80.000 E1.04083 F540.000
G1 X52.991 Y80.768 E1.08166
G1 X52.695 Y81.484 E1.12249
G1 X52.223 Y82.098 E1.16332
G1 X51.609 Y82.570 E1.20416
G1 X50.893 Y82.866 E1.24499
G1 X50.125 Y82.967 E1.28582
G1 X49.357 Y82.866 E1.32665
G1 X48.641 Y82.570 E1.36748
G1 X48.027 Y82.098 E1.40831
G1 X47.555 Y81.484 E1.44914
G1 X47.259 Y80.768 E1.48997
G1 X47.158 Y80.000 E1.53080
G1 X47.259 Y79.232 E1.57163
G1 X47.555 Y78.516 E1.61246
G1 X48.027 Y77.902 E1.65329
G1 X48.641 Y77.430 E1.69412
G1 X49.357 Y77.134 E1.73495
G1 X50.125 Y77.032 E1.77579
G1 X50.893 Y77.134 E1.81662
G1 X51.609 Y77.430 E1.85745
G1 X52.223 Y77.902 E1.89828
G1 X52.695 Y78.516 E1.93911
G1 X52.964 Y79.166 E1.97616
G1 X52.525 Y79.357 F9000.000
G1 X52.610 Y80.000 E2.01035 F540.000
G1 X52.525 Y80.643 E2.04454
G1 X52.277 Y81.242 E2.07873
G1 X51.882 Y81.757 E2.11292
G1 X51.367 Y82.152 E2.14711
G1 X50.768 Y82.400 E2.18129
G1 X50.125 Y82.485 E2.21548
G1 X49.482 Y82.400 E2.24967
G1 X48.883 Y82.152 E2.28386
G1 X48.368 Y81.757 E2.31805
G1 X47.973 Y81.242 E2.35224
G1 X47.725 Y80.643 E2.38643
G1 X47.640 Y80.000 E2.42062
G1 X47.725 Y79.357 E2.45481
G1 X47.973 Y78.758 E2.48900
G1 X48.368 Y78.243 E2.52319
G1 X48.883 Y77.848 E2.55738
G1 X49.482 Y77.600 E2.59157
G1 X50.125 Y77.515 E2.62576
G1 X50.768 Y77.600 E2.65995
G1 X51.367 Y77.848 E2.69414
G1 X51.882 Y78.243 E2.72833
G1 X52.277 Y78.758 E2.76252
G1 X52.498 Y79.291 E2.79292
G1 X52.059 Y79.482 F9000.000
G1 X52.127 Y80.000 E2.82047 F540.000
G1 X52.059 Y80.518 E2.84802
G1 X51.859 Y81.001 E2.87557
G1 X51.541 Y81.416 E2.90312
G1 X51.126 Y81.734 E2.93067
G1 X50.643 Y81.934 E2.95822
G1 X50.125 Y82.002 E2.98576
G1 X49.607 Y81.934 E3.01331
G1 X49.124 Y81.734 E3.04086
G1 X48.709 Y81.416 E3.06841
G1 X48.391 Y81.001 E3.09596
G1 X48.191 Y80.518 E3.12351
G1 X48.123 Y80.000 E3.15105
G1 X48.191 Y79.482 E3.17860
G1 X48.391 Y78.999 E3.20615
G1 X48.709 Y78.584 E3.23370
G1 X49.124 Y78.266 E3.26125
G1 X49.607 Y78.066 E3.28880
G1 X50.125 Y77.998 E3.31634
G1 X50.643 Y78.066 E3.34389
G1 X51.126 Y78.266 E3.37144
G1 X51.541 Y78.584 E3.39899
G1 X51.859 Y78.999 E3.42654
G1 X52.031 Y79.415 E3.45030
G1 X52.515 Y79.626 F9000.000
G1 F1800.000 E2.45030
G92 E0
G1 X50.125 Y97.033 F9000.000
G1 E1.00000 F1800.000
